packages/blockchain-info-components/src/Images/img/credit-card.svg

<svg fill="none" height="24" viewBox="0 0 24 24" width="24" xmlns="http://www.w3.org/2000/svg"><path d="m20 4h-16c-1.11 0-1.99.89-1.99 2l-.01 12c0 1.11.89 2 2 2h16c1.11 0 2-.89 2-2v-12c0-1.11-.89-2-2-2zm0 14h-16v-6h16zm0-10h-16v-2h16z" fill="#121d33"/></svg>

<svg width="24" height="24" viewBox="0 0 24 24" fill="none" xmlns="http://www.w3.org/2000/svg">
<path d="M20 4H4C2.89 4 2.01 4.89 2.01 6L2 18C2 19.11 2.89 20 4 20H20C21.11 20 22 19.11 22 18V6C22 4.89 21.11 4 20 4ZM20 18H4V12H20V18ZM20 8H4V6H20V8Z" fill="#121D33"/>
</svg>
